X:1
T:Look Away to Calvary’s Mountain
T:Look Away to Calvary’s Mountain
T:Charles E. Rowley
T:Charles E. Rowley, 1900
T:Public Domain Courtesy of the Cyber Hymnal™
T:Public Domain Courtesy of the Cyber Hymnal™
C:Charles E. Rowley
Z:Public Domain
Z:Courtesy of the Cyber Hymnal™
%%score ( 1 2 ) ( 3 4 )
L:1/8
Q:1/4=83
M:4/4
K:D
V:1 treble 
V:2 treble 
V:3 bass 
V:4 bass 
V:1
 D[DF] | [FA]>[GB] [FA][DF] [CE]<D [DF][FA] | [Gd]>[Ge] [Gd][GB] [FA]2 D[DF] | %3
w: 1.~Sin- ner,|come, oh, come to Je- sus, Oh, why|long- er stay a- way? He is|
w: 2.~Sin has|made thy path- way drea- ry, Je- sus|knows it all full well; Hea- vy|
w: 3.~Look a-|way to Cal- v’ry’s mount- ain Where the|Sav- ior died for thee, O- pened|
 [FA]>[GB] [FA][DF] [CE]<D D[DF] | [CE][DF] [EG]>[DF] [CE]2 D[DF] | %5
w: wait- ing to re- ceive you, Change thy|dark- ness in- to day; Come with|
w: la- den, and so wea- ry, More than|hu- man tongue can tell; List- en|
w: up the cleans- ing fount- ain, That from|sin you may be free— Peace that|
 [FA]>[GB] [FA][DF] [CE]<D [DF][FA] | [Gd]>[Ge] [Gd][GB] [FA]2 [FA][FA] | %7
w: all thy hea- vy bur- dens, Lay them|down at Je- sus’ feet. He will|
w: to His ten- der plead- ing, “Sin- ner,|turn, why will you die?” Gra- cious|
w: pass- eth un- der- stand- ing, Joy of|Heav’n to earth come down, Here, an|
 [Fd]>[Fe] [Fd][GB] [FA]<[DF] D[DF] | [CE][CG] [DF]>[CE] D2 z ||"^Refrain" A3 [GB] [FA] [DF]2 z | %10
w: fill thy soul with glad- ness, And give|vic- to- ry com- plete.|Bless- èd Je- sus,|
w: par- don He would give thee, And a|hap- py home on high.||
w: ut- ter- most sal- va- tion, There, a|nev- er fad- ing crown.||
 d3 [Ge] [Gd] [GB]2 z | A3/2[GB][FA][DF]D[DF] x3/2 | [CE]6 z2 | A3 [GB] [FA] [DF]2 z | %14
w: lov- ing Sav- ior,|Bless, oh, bless my wait- ing|soul;|I will trust Thee,|
w: ||||
w: ||||
 d3 [Ge] [Gd] [GB]2 z | A3 [GB] [FA][DF][CE][CF] | D6 |] %17
w: I will praise thee,|While the end- less ag- es|roll.|
w: |||
w: |||
V:2
 D x | x9/2 D3/2 x2 | x6 D x | x9/2 D3/2D x | x6 D x | x9/2 D3/2 x2 | x8 | x6 D x | x4 D2 x || %9
 (FFF) x5 | (GGG) x5 | (FFF) x7/2 D x/ | x8 | (FFF) x5 | (GGG) x5 | (FFF) x5 | (A,A,B,B, A,2) |] %17
V:3
 [D,F,][D,A,] | [D,D]>[D,D] [D,D][D,A,] [D,G,]<[D,F,] [D,A,][D,D] | %2
w: ~ ~|~ ~ ~ ~ ~ ~ ~ ~|
 [G,B,]>[G,C] [G,B,][G,D] [D,D]2 [D,F,][D,A,] | %3
w: ~ ~ ~ ~ ~ ~ ~|
 [D,D]>[D,D] [D,D][D,A,] [D,G,]<[D,F,] [D,F,][D,A,] | %4
w: ~ ~ ~ ~ ~ ~ ~ ~|
 [A,,A,][A,,A,] [A,,A,]>[A,,A,] [A,,A,]2 [D,F,][D,A,] | %5
w: ~ ~ ~ ~ ~ ~ ~|
 [D,D]>[D,D] [D,D][D,A,] [D,G,]<[D,F,] [D,A,][D,D] | [G,B,]>[G,C] [G,B,][G,D] [D,D]2 [D,D][D,D] | %7
w: ~ ~ ~ ~ ~ ~ ~ ~|~ ~ ~ ~ ~ ~ ~|
 [D,A,]>[D,A,] [D,A,][D,D] [D,D]<[D,D] [D,F,][D,A,] | [A,,A,][A,,A,] [A,,A,]>[A,,G,] [D,F,]2 z || %9
w: ~ ~ ~ ~ ~ ~ ~ ~|~ ~ ~ ~ ~|
 [D,D][D,D][D,D][D,D] [D,D] [D,A,]2 z | [G,B,][G,B,][G,B,][G,B,] [G,B,] [G,D]2 z | %11
w: Bless me, oh my Sav- ior,|Bless me, oh my Sav- ior,|
 [D,D][D,D][D,D][D,D] [D,D][D,D][F,A,][D,A,] | A,6 x2 | [D,D][D,D][D,D][D,D] [D,D] [D,A,]2 z | %14
w: Come, oh come and bless my wait- ing|soul,|my wait- ing soul, oh, I|
 [G,B,][G,B,][G,B,][G,B,] [G,B,] [G,D]2 z | [A,D][A,D][A,D][A,C] [A,D]A,[A,,A,][A,,A,] | %16
w: will ev- er trust Thee, I|will ev- er praise Thee, Praise Thee while|
 [D,F,][D,F,][D,G,][D,G,] [D,F,]2 |] %17
w: the end- less ag- es|
V:4
 x2 | x8 | x8 | x8 | x8 | x8 | x8 | x8 | x7 || x8 | x8 | x8 | A,A,A,B, (A,G,) (F,E,) | x8 | x8 | %15
 x5 A, x2 | x6 |] %17

